!!!OTL: Der Hammerschmiedssohn Es war ein wilder Wassermann,
!!!ARE: Europa, Mitteleuropa, Deutschland (), Brandenburg, bei Oderberg
!!!YOR: 4, S. 360
!!    ????
!!!SCT: Q1088I
!!!YEM: Copyright 1995, estate of Helmut Schaffrath.
**kern
*ICvox
*Ivox
*M2/4
*k[b-]
*F:
{8c
=1
8f
8f
8g
8b-
=2
8a
16a
16g
8f}
{16g
16g
=3
8a
8g
8f
16e
16g
=4
8d
8c
8r}
{8c
=5
16f
16f
16a
16a
8cc
8f
=6
8e
8g
8b-}
{8cc
=7
8a
8a
16b-
16b-
8e
=8
4f
8r}
==
!!!AGN: ???
!! Melodievergleich zu Q0088B, anderes Lied "Wassermanns Frau" .
!!!ONB: ESAC (Essen Associative Code) Database: BALLADE
!!!AMT: simple duple
!!!AIN: vox
!!!EED: Helmut Schaffrath
!!!EEV: 1.0
*-
